X:1
T:Sonata in G Major
T:Sonata in G Major
T:HOB. XVI:8
T:Joseph Haydn
C:Joseph Haydn
%%score { 1 | ( 2 3 ) }
L:1/8
Q:1/4=110
M:2/4
K:G
V:1 treble nm="Grand Piano"
V:2 bass 
V:3 bass 
V:1
"^Allegro."!mf! d/>g/ | !wedge!dB/>d/ BG/>B/ | G2 z d | (3(c/d/e/)d z B | (3(A/B/c/)B z d | %5
 Te/d/e/f/ g/f/e/d/ | (Tc2 B)B | A/c/B/A/ eG | GF!p! z/ a/ z/ a/ | z/ a/ z/ a/ z/ a/ z/ a/ | %10
 (3(g/a/g/)f (3(e/f/e/)d | (3(^c/B/A/)d!mp! z/ g/ z/ g/ | z/ g/ z/ g/ z/ g/ z/ g/ | %13
 (3(f/e/d/) (3(^c/B/A/) e2 | !wedge!d!mf!d' ^c'b | a(3(b/a/g/) fTe | d2 z2 :: d/>g/ | %18
 !wedge!d z/ =c'/ z/ f/ z/ a/ | z/ g/b/d/ (3(c/d/e/) (3(A/B/c/) | %20
 (3(B/c/d/) (3(c/d/e/) !wedge!d!p!d/>f/ | dFGA | BMc !wedge!d!mf!g/>b/ | gB cd | e=f ge/>g/ | %25
 d(3(c/d/c/) B(3(d/c/B/) | A(3(c/B/A/) eG | TGF z!mf! d/>g/ | dB/>d/ BG/>B/ | G2 z d | %30
 (3(c/d/e/) d z B | (3(A/B/c/) B z d | Te/d/e/f/ g/f/e/d/ | (Tc2 B)B | A/c/B/A/ eG | %35
 GF!p! z/ d'/ z/ d'/ | z/ d'/ z/ d'/ z/ d'/ z/ d'/ | (3(c'/d'/c'/)b (3(a/b/a/)g | %38
 (3(f/e/d/)g!mp! z/ c'/ z/ c'/ | z/ c'/ z/ c'/ z/ c'/ z/ c'/ | (3(b/a/g/) (3(f/e/d/) a2 | %41
 !wedge!gg fe | d(3(e/d/c/) BTA | !wedge!Gg fe | d(3(e/d/c/) BTA | G2 z2 :| %46
[M:3/4]!mf!"^Minuet." (G2 B2) z2 | (A/G/A/B/ c2) z2 | (cB) (ed) (3(gfe) |{d} (Tc4 B2) | %50
 (b/a/b/c'/) d'2 z2 | (3(aba) (3(d'^c'b) (3(agf) | (3(egb) d2 T^c2 | d2 z2 z2 :: d2 B2 z2 | %55
 (c/B/c/d/) e2 z2 | cA BG (3(gfe) |{d} (Tc4 B2) | e/d/e/f/ gg gg | f/e/f/g/ !wedge!ac cB | %60
 (3(Ace) G2 TF2 | G4 z2 :|[M:4/4]!p!"^Andante." d | (d3/2e/4f/4) !wedge!gg (g2 f)e | %64
 e/d/c/B/ d/c/B/A/ BG z!mf! e | (d3/2e/4f/4)!wedge!gb (b2 a)g | g/f/e/d/ Te2 d2 z :: d/d'/ | %68
 d'2 c'/b/a/^g/ a2 z!mp! c/c'/ | c'2 b/a/g/f/ g2 z!mf! d/g/ | %70
 (Ted) (3(d/e/f/) (3(g/f/g/) Ted{AB} c2 | c/B/A/G/ B/A/G/F/ G/g/g{AB} c2 | %72
 c/B/A/G/ B/A/G/F/ G2 z :|[M:3/8]"^Allegro."!f! dgb | d'2 d | ec'e | d z z |!mf! cac | %78
 B/g/c/g/d/g/ | A/e/ d/c/ B/A/ | G3 :: F/D/F/D/F/D/ | G/D/A/D/B/D/ | c/D/c/D/B/D/ | A/d/F/A/D | %85
 F/d/F/d/F/d/ | G/d/A/d/B/d/ | c/d/c/d/B/d/ | A/d/F/A/D |!f! dgb | d'2 d | ec'e | d z z |!mf! cac | %94
 B/g/c/g/d/g/ | A/e/ d/c/ B/A/ | G3 :| %97
V:2
 z | [G,B,]2 z2 | z [G,B,] [G,B,]2 | z [G,B,] [G,B,]2 | z [G,B,] [G,B,]2 | [C,C]2 [B,,B,]2 | %6
 A,D, G,2 | C,3 ^C, | (D,D,,) (D,F, | A,DFD | ED) (GF) | (EF) (A,,^C, | E,A,^CE | D2) D^C | %14
 DB,/D/ A,/B,/G,/D/ | F,G,A,A,, | D,A,,D,, z :: z |[K:treble] z =F Ac | BG AF | GA B z | %21
[K:bass] z D,/D/ D,/D/D,/D/ | G,/D/A,/D/ B, z | z G,,/G,/ A,,/G,/B,,/G,/ | C,/G,/D,/G,/ E,C | %25
 B,A,G,B, | C3 .^C | .D.A, D,2 | [G,B,]2 z2 | z [G,,,G,,] [G,,,G,,]2 | z [G,B,] [G,B,]2 | %31
 z [G,B,] [G,B,]2 | [C,C]2 [B,,B,]2 | A,D, G,2 | C3 .^C | (DD,) (G,B, |[K:treble] DG BG | %37
 AG) (cB) | (AB)[K:bass] (D,F, |[K:bass] A,D[K:treble] FA | G2) GF | GE/G/ D/G/C/G/ | %42
[K:bass] B,C DD, | G,E/G/ D/G/C/G/ | B,C DD, | G,D,G,, z :|[M:3/4] z2 G,2 G,,2 | z2 F,2 D,2 | %48
 G,2 z2 z2 |{B,} (A,4 G,2) | z2 [G,B,]2 [G,B,]2 | [F,D]2 z2 z2 | [G,G]2 F2 E2 | D2 A,2 D,2 :: %54
 B,2 ^G,2 E,2 | A,2 C2 A,2 | F,2 G,2 z2 |{B,} (A,4 G,2) | C2 B,2 G,2 | A,2 F,2 G,2 | %60
 [C,C]2 B,2 A,2 | G,2 D,2 G,,2 :|[M:4/4] z | z G,B,C DD,DC | B,G, A,D, G,D,/B,,/ G,,2 | %65
 z G,!wedge!B,G, z G^CE | DF,G,A, D,A,,D,, :: z | z =FDE A,E, A,,2 | z ECD G,D,G,,[G,B,] | %70
 CB,z[G,B,] CB,zF, | G,B,,C,D, E,2 F,2 | G,B,,C,D, G,D,G,, :|[M:3/8][K:treble] G/B/G/B/G/B/ | %74
 G/B/G/B/G/B/ | G/c/G/c/G/c/ | G/B/G/B/G/B/ | D/A/D/A/D/A/ | GAB |[K:bass] C2 D | G,D,G,, :: %81
 z z C | B,F,G, | A,F,G, | F,2 z | [D,D]2 [C,C] | [B,,B,] [G,,A,] [G,,G,] | [F,,F,]2 [G,,G,] | %88
 [D,,D,]2 z |[K:treble] G/B/G/B/G/B/ | G/B/G/B/G/B/ | G/c/G/c/G/c/ | G/B/G/B/G/B/ | D/A/D/A/D/A/ | %94
 GAB |[K:bass] C2 D | G,D,G,, :| %97
V:3
 x | x4 | x4 | x4 | x4 | x4 | x4 | x4 | x4 | x4 | x4 | x4 | x4 | x2 A,2 | x4 | x4 | x4 :: x | %18
[K:treble] D4 | D4 | D3 x |[K:bass] x4 | x4 | x4 | x4 | x4 | x4 | x4 | x4 | x4 | x4 | x4 | x4 | %33
 x4 | x4 | x4 |[K:treble] x4 | x4 | x2[K:bass] x2 |[K:bass] x2[K:treble] x2 | x2 D2 | x4 | %42
[K:bass] x4 | x4 | x4 | x4 :|[M:3/4] x6 | x6 | x6 | D,4 G,2 | x6 | x6 | x2 A,4 | x6 :: x6 | x6 | %56
 x6 | D,4 G,2 | x6 | x6 | x2 D,4 | x6 :|[M:4/4] x | x8 | x8 | x8 | x7 :: x | x8 | x8 | x8 | x8 | %72
 x7 :|[M:3/8][K:treble] x3 | x3 | x3 | x3 | x3 | x3 |[K:bass] x3 | x3 :: D,3 | D,3 | D,3 | D,2 x | %85
 x3 | x3 | x3 | x3 |[K:treble] x3 | x3 | x3 | x3 | x3 | x3 |[K:bass] x3 | x3 :| %97

